client/static/offlinefav.svg

<?xml version="1.0" encoding="UTF-8"?>
<svg width="53px" height="50px" viewBox="0 0 53 50" version="1.1" xmlns="http://www.w3.org/2000/svg" xmlns:xlink="http://www.w3.org/1999/xlink">
    <!-- Generator: Sketch 53.1 (72631) - https://sketchapp.com -->
    <title>Group 2</title>
    <desc>Created with Sketch.</desc>
    <g id="Page-1" stroke="none" stroke-width="1" fill="none" fill-rule="evenodd">
        <g id="Group-2" fill-rule="nonzero">
            <rect id="Rectangle" fill="#F91C1C" x="0" y="0" width="53" height="44" rx="22"></rect>
            <path d="M23.6,43 L23.6,48.381966 C23.6,48.9342508 24.047715,49.381966 24.6,49.381966 C24.755245,49.381966 24.908358,49.3458209 25.047214,49.2763932 L37.6,43 L23.6,43 Z" id="Path" fill="#F91C1C"></path>
            <path d="M39,29 C37.7105202,29 36.5438658,28.6929855 35.5,28.0789474 C34.4561342,27.4649092 33.6118452,26.6206193 32.9671053,25.5460526 C32.3223654,24.471486 32,23.2894801 32,22 C32,20.7105199 32.3223654,19.528514 32.9671053,18.4539474 C33.6118452,17.3793807 34.4561342,16.5350908 35.5,15.9210526 C36.5438658,15.3070145 37.7105202,15 39,15 C40.2894798,15 41.4561342,15.3070145 42.5,15.9210526 C43.5438658,16.5350908 44.3881548,17.3793807 45.0328947,18.4539474 C45.6776346,19.528514 46,20.7105199 46,22 C46,23.2894801 45.6776346,24.471486 45.0328947,25.5460526 C44.3881548,26.6206193 43.5438658,27.4649092 42.5,28.0789474 C41.4561342,28.6929855 40.2894798,29 39,29 Z" id=".online" fill="#FFFFFF"></path>
        </g>
    </g>
</svg>

<svg width="53" height="50" xmlns="http://www.w3.org/2000/svg"><g fill-rule="nonzero" fill="none"><rect fill="#F91C1C" width="53" height="44" rx="22"/><path d="M23.6 43v5.382a1 1 0 001.447.894L37.6 43h-14z" fill="#F91C1C"/><path d="M39 29c-1.29 0-2.456-.307-3.5-.921a7.15 7.15 0 01-2.533-2.533A6.763 6.763 0 0132 22c0-1.29.322-2.471.967-3.546A7.15 7.15 0 0135.5 15.92C36.544 15.307 37.71 15 39 15s2.456.307 3.5.921a7.15 7.15 0 012.533 2.533A6.763 6.763 0 0146 22c0 1.29-.322 2.471-.967 3.546A7.15 7.15 0 0142.5 28.08c-1.044.614-2.21.921-3.5.921z" fill="#FFF"/></g></svg>
